X:1
T:Jealousy
M:3/4
L:1/8
K:F
 FAB| c3 GA F| EC z FF E| F3 GAB/2-A/2| G3 FG G| c3| GAF| EC zA/2-B/2 cd|\
c-A-A cB/2-A/2 G| F3||
